public/img/primeiro-andar.svg

<svg width="1144" height="1089" fill="none" xmlns="http://www.w3.org/2000/svg"><path d="M408.512 921.07v165.5H163.48v-165.5m245.032 0V678.448m0 242.622h-161.48m-83.552 0V597.307h-56.237M163.48 921.07h9.64M2 516.165v81.142h105.243M2 516.165v-80.338h105.243M2 516.165h105.243m301.269-80.338v25.708h89.978v114.08h-89.978v21.692m0-161.48V218.11h540.676M408.512 435.827H382m26.512 161.48v81.141m0-81.141h-5.624m5.624 81.141h-161.48m0 242.622V706.567m0 214.503h-53.024m53.024-242.622v-81.141h134.165m-134.165 81.141v5.624M107.243 435.827v5.623m0-5.623h244.228m-244.228 26.511v37.759m0 16.068v-16.068m0 16.068v41.939m0 12.691v-12.691m0 32.776v6.427m0-97.21h26.512m23.298 0h6.427v58.007H107.243m250.655-122.277h-6.427m0 0V218.11h-49.809m0 0H95.192V2h206.47m0 216.11v-8.034m0-208.076v160.677m0-160.677h324.566M301.662 162.677v7.23m0-7.23h165.497m159.069 0h114.884m-114.884 0V2m0 160.677h-118.9m277.97 0h163.89m0 0V2m0 160.677v9.64m0-170.317h-322.96m322.96 0H1142v216.11h-112.47v53.023h-80.342V218.11m0 0v-8.837M408.512 496.884h56.236v44.989h-56.236v-44.989z" stroke="#18211A" stroke-width="3"/><path d="M173 921h21m53-237v22.5m156-109h-22M107 571v20m26.5-91H157m-50-58.5v21M357 436h25m-80-267v42m165-48.5h40.5m233.5 0h44.5M949 172v37.5" stroke="#F82"/><path d="M480.5 478h1v-1h-1v1zm-69.207-.707a.999.999 0 000 1.414l6.364 6.364a.999.999 0 101.414-1.414L413.414 478l5.657-5.657a.999.999 0 10-1.414-1.414l-6.364 6.364zM480.5 477H412v2h68.5v-2zm-1 1v84h2v-84h-2z" fill="#5D7"/><path d="M412.293 560.293a.999.999 0 000 1.414l6.364 6.364a.999.999 0 101.414-1.414L414.414 561l5.657-5.657a.999.999 0 10-1.414-1.414l-6.364 6.364zM481 560h-68v2h68v-2z" fill="#5D7"/></svg>

<svg width="1144" height="1089" viewBox="0 0 1144 1089" fill="none" xmlns="http://www.w3.org/2000/svg">
<path d="M408.512 921.07V1086.57H163.48V921.07M408.512 921.07V678.448M408.512 921.07H247.032M163.48 921.07V597.307H107.243M163.48 921.07H173.12M2 516.165V597.307H107.243M2 516.165V435.827H107.243M2 516.165H107.243M408.512 435.827V461.535H498.49V575.615H408.512V597.307M408.512 435.827V218.11H949.188M408.512 435.827H382M408.512 597.307V678.448M408.512 597.307H402.888M408.512 678.448H247.032M247.032 921.07V706.567M247.032 921.07H194.008M247.032 678.448V597.307H381.197M247.032 678.448V684.072M107.243 435.827V441.45M107.243 435.827H351.471M107.243 462.338V500.097M107.243 516.165V500.097M107.243 516.165V558.104M107.243 570.795V558.104M107.243 590.88V597.307M107.243 500.097H133.755M157.053 500.097H163.48V558.104H135.362H107.243M357.898 435.827H351.471M351.471 435.827V218.11H301.662M301.662 218.11H95.1924V2H301.662M301.662 218.11V210.076M301.662 2V162.677M301.662 2H626.228M301.662 162.677V169.907M301.662 162.677H467.159M626.228 162.677H741.112M626.228 162.677V2M626.228 162.677H507.328M785.298 162.677H949.188M949.188 162.677V111.26V2M949.188 162.677V172.317M949.188 2H626.228M949.188 2H1032.74H1142V218.11H1029.53V271.133H949.188V218.11M949.188 218.11V209.273M408.512 496.884H464.748V541.873H408.512V496.884Z" stroke="#18211A" stroke-width="3"/>
<path d="M173 921H194M247 684V706.5M403 597.5H381M107 571V591M133.5 500H157M107 441.5V462.5M357 436H382M302 169V211M467 162.5H507.5M741 162.5H785.5M949 172V209.5" stroke="#FF8822"/>
<path d="M480.5 478H481.5V477H480.5V478ZM411.293 477.293C410.902 477.683 410.902 478.317 411.293 478.707L417.657 485.071C418.048 485.462 418.681 485.462 419.071 485.071C419.462 484.68 419.462 484.047 419.071 483.657L413.414 478L419.071 472.343C419.462 471.953 419.462 471.319 419.071 470.929C418.681 470.538 418.048 470.538 417.657 470.929L411.293 477.293ZM480.5 477L412 477V479L480.5 479V477ZM479.5 478L479.5 562H481.5L481.5 478H479.5Z" fill="#55DD77"/>
<path d="M412.293 560.293C411.902 560.683 411.902 561.317 412.293 561.707L418.657 568.071C419.047 568.462 419.681 568.462 420.071 568.071C420.462 567.681 420.462 567.047 420.071 566.657L414.414 561L420.071 555.343C420.462 554.953 420.462 554.319 420.071 553.929C419.681 553.538 419.047 553.538 418.657 553.929L412.293 560.293ZM481 560H413V562H481V560Z" fill="#55DD77"/>
</svg>
